build/img/hero-text-1.svg

<svg width="864" height="135" viewBox="0 0 864 135" fill="none" xmlns="http://www.w3.org/2000/svg">
<path d="M502.825 70.536L472.105 117H443.561V27.4H473.257V73.992L504.105 27.4H532.521V117H502.825V70.536Z" fill="url(#paint0_linear_27_1805)"/>
<path d="M487.977 22.28C477.822 22.28 470.612 20.4027 466.345 16.648C462.164 12.808 460.073 7.3467 460.073 0.264038H480.169C480.169 3.08004 480.724 5.17071 481.833 6.53604C483.028 7.81604 485.076 8.45604 487.977 8.45604C490.964 8.45604 493.054 7.81604 494.249 6.53604C495.444 5.17071 496.041 3.08004 496.041 0.264038H516.137C516.137 7.3467 513.961 12.808 509.609 16.648C505.342 20.4027 498.132 22.28 487.977 22.28Z" fill="url(#paint1_linear_27_1805)"/>
<path fill-rule="evenodd" clip-rule="evenodd" d="M129.78 115.592C136.009 117.896 142.751 119.048 150.004 119.048C157.343 119.048 164.084 117.896 170.228 115.592C176.372 113.288 181.705 110.045 186.228 105.864C190.751 101.597 194.249 96.6054 196.724 90.888C199.284 85.1707 200.564 78.9414 200.564 72.2C200.564 65.3734 199.284 59.144 196.724 53.512C194.249 47.7947 190.751 42.8454 186.228 38.664C181.705 34.3974 176.372 31.112 170.228 28.808C164.084 26.504 157.343 25.352 150.004 25.352C142.751 25.352 136.009 26.504 129.78 28.808C123.636 31.112 118.303 34.3974 113.78 38.664C109.257 42.8454 105.716 47.7947 103.156 53.512C100.681 59.144 99.444 65.3734 99.444 72.2C99.444 78.9414 100.681 85.1707 103.156 90.888C105.716 96.6054 109.257 101.597 113.78 105.864C118.303 110.045 123.636 113.288 129.78 115.592ZM157.812 93.064C155.423 94.088 152.82 94.6 150.004 94.6C147.188 94.6 144.543 94.088 142.068 93.064C139.679 92.04 137.545 90.5894 135.668 88.712C133.876 86.7494 132.468 84.4027 131.444 81.672C130.42 78.856 129.908 75.6987 129.908 72.2C129.908 68.7014 130.42 65.5867 131.444 62.856C132.468 60.04 133.876 57.6934 135.668 55.816C137.545 53.8534 139.679 52.36 142.068 51.336C144.543 50.312 147.188 49.8 150.004 49.8C152.82 49.8 155.423 50.312 157.812 51.336C160.287 52.36 162.42 53.8534 164.212 55.816C166.089 57.6934 167.54 60.04 168.564 62.856C169.588 65.5867 170.1 68.7014 170.1 72.2C170.1 75.6987 169.588 78.856 168.564 81.672C167.54 84.4027 166.089 86.7494 164.212 88.712C162.42 90.5894 160.287 92.04 157.812 93.064Z" fill="url(#paint2_linear_27_1805)"/>
<path fill-rule="evenodd" clip-rule="evenodd" d="M286.316 109.96C280.001 114.653 270.999 117 259.308 117H211.436V27.4H256.876C267.969 27.4 276.545 29.448 282.604 33.544C288.748 37.64 291.82 43.4 291.82 50.824C291.82 58.0774 289.004 63.8374 283.372 68.104C282.415 68.8149 281.4 69.4653 280.33 70.0553C282.838 70.9599 285.09 72.1015 287.084 73.48C292.887 77.4907 295.788 83.336 295.788 91.016C295.788 98.952 292.631 105.267 286.316 109.96ZM263.404 83.592C262.209 82.3974 260.375 81.8 257.9 81.8H241.132V95.88H257.9C260.375 95.88 262.209 95.2827 263.404 94.088C264.684 92.808 265.324 91.016 265.324 88.712C265.324 86.408 264.684 84.7014 263.404 83.592ZM259.564 50.312C258.369 49.1174 256.492 48.52 253.932 48.52H241.132V61.832H253.932C256.492 61.832 258.369 61.2774 259.564 60.168C260.759 59.0587 261.356 57.4374 261.356 55.304C261.356 53.0854 260.759 51.4214 259.564 50.312Z" fill="url(#paint3_linear_27_1805)"/>
<path fill-rule="evenodd" clip-rule="evenodd" d="M380.417 62.344C374.273 57.3947 365.74 54.92 354.817 54.92H336.257V27.4H306.561V117H350.977C362.838 117 372.268 114.269 379.265 108.808C386.262 103.261 389.761 95.1547 389.761 84.488C389.761 74.5894 386.646 67.208 380.417 62.344ZM356.353 93.064C354.39 94.9414 351.916 95.88 348.929 95.88H336.257V76.04H348.929C351.916 76.04 354.39 76.68 356.353 77.96C358.401 79.24 359.425 81.5867 359.425 85C359.425 88.4134 358.401 91.1014 356.353 93.064Z" fill="url(#paint4_linear_27_1805)"/>
<path fill-rule="evenodd" clip-rule="evenodd" d="M704.129 119.048C696.876 119.048 690.134 117.896 683.905 115.592C677.761 113.288 672.428 110.045 667.905 105.864C663.382 101.597 659.841 96.6054 657.281 90.888C654.806 85.1707 653.569 78.9414 653.569 72.2C653.569 65.3734 654.806 59.144 657.281 53.512C659.841 47.7947 663.382 42.8454 667.905 38.664C672.428 34.3974 677.761 31.112 683.905 28.808C690.134 26.504 696.876 25.352 704.129 25.352C711.468 25.352 718.209 26.504 724.353 28.808C730.497 31.112 735.83 34.3974 740.353 38.664C744.876 42.8454 748.374 47.7947 750.849 53.512C753.409 59.144 754.689 65.3734 754.689 72.2C754.689 78.9414 753.409 85.1707 750.849 90.888C748.374 96.6054 744.876 101.597 740.353 105.864C735.83 110.045 730.497 113.288 724.353 115.592C718.209 117.896 711.468 119.048 704.129 119.048ZM704.129 94.6C706.945 94.6 709.548 94.088 711.937 93.064C714.412 92.04 716.545 90.5894 718.337 88.712C720.214 86.7494 721.665 84.4027 722.689 81.672C723.713 78.856 724.225 75.6987 724.225 72.2C724.225 68.7014 723.713 65.5867 722.689 62.856C721.665 60.04 720.214 57.6934 718.337 55.816C716.545 53.8534 714.412 52.36 711.937 51.336C709.548 50.312 706.945 49.8 704.129 49.8C701.313 49.8 698.668 50.312 696.193 51.336C693.804 52.36 691.67 53.8534 689.793 55.816C688.001 57.6934 686.593 60.04 685.569 62.856C684.545 65.5867 684.033 68.7014 684.033 72.2C684.033 75.6987 684.545 78.856 685.569 81.672C686.593 84.4027 688.001 86.7494 689.793 88.712C691.67 90.5894 693.804 92.04 696.193 93.064C698.668 94.088 701.313 94.6 704.129 94.6Z" fill="url(#paint5_linear_27_1805)"/>
<path fill-rule="evenodd" clip-rule="evenodd" d="M774.965 54.664L775.989 27.4H851.765V93.576H863.541V134.536H835.893V117H784.949V134.536H757.301V93.576H759.861C762.677 93.576 764.981 92.6374 766.773 90.76C768.65 88.7974 770.144 86.1094 771.253 82.696C772.362 79.1974 773.173 75.1014 773.685 70.408C774.282 65.6294 774.709 60.3814 774.965 54.664ZM795.829 90.76C795.394 91.7644 794.919 92.703 794.405 93.576H822.069V50.824H801.461L801.205 57.224C801.034 61.9174 800.736 66.312 800.309 70.408C799.882 74.504 799.285 78.2587 798.517 81.672C797.834 85.0854 796.938 88.1147 795.829 90.76Z" fill="url(#paint6_linear_27_1805)"/>
<path d="M88.506 27.4H58.298V59.144H30.394V27.4H0.186035V117H30.394V83.976H58.298V117H88.506V27.4Z" fill="url(#paint7_linear_27_1805)"/>
<path d="M427.649 27.4H397.953V117H427.649V27.4Z" fill="url(#paint8_linear_27_1805)"/>
<path d="M655.035 27.4H586.811V117H616.507V50.824H655.035V27.4Z" fill="url(#paint9_linear_27_1805)"/>
<defs>
<linearGradient id="paint0_linear_27_1805" x1="431.864" y1="0.264038" x2="431.864" y2="134.536" gradientUnits="userSpaceOnUse">
<stop stop-color="#00F780"/>
<stop offset="1" stop-color="#C5E3FF" stop-opacity="0.04"/>
</linearGradient>
<linearGradient id="paint1_linear_27_1805" x1="431.864" y1="0.264038" x2="431.864" y2="134.536" gradientUnits="userSpaceOnUse">
<stop stop-color="#00F780"/>
<stop offset="1" stop-color="#C5E3FF" stop-opacity="0.04"/>
</linearGradient>
<linearGradient id="paint2_linear_27_1805" x1="431.864" y1="0.264038" x2="431.864" y2="134.536" gradientUnits="userSpaceOnUse">
<stop stop-color="#00F780"/>
<stop offset="1" stop-color="#C5E3FF" stop-opacity="0.04"/>
</linearGradient>
<linearGradient id="paint3_linear_27_1805" x1="431.864" y1="0.264038" x2="431.864" y2="134.536" gradientUnits="userSpaceOnUse">
<stop stop-color="#00F780"/>
<stop offset="1" stop-color="#C5E3FF" stop-opacity="0.04"/>
</linearGradient>
<linearGradient id="paint4_linear_27_1805" x1="431.864" y1="0.264038" x2="431.864" y2="134.536" gradientUnits="userSpaceOnUse">
<stop stop-color="#00F780"/>
<stop offset="1" stop-color="#C5E3FF" stop-opacity="0.04"/>
</linearGradient>
<linearGradient id="paint5_linear_27_1805" x1="431.864" y1="0.264038" x2="431.864" y2="134.536" gradientUnits="userSpaceOnUse">
<stop stop-color="#00F780"/>
<stop offset="1" stop-color="#C5E3FF" stop-opacity="0.04"/>
</linearGradient>
<linearGradient id="paint6_linear_27_1805" x1="431.864" y1="0.264038" x2="431.864" y2="134.536" gradientUnits="userSpaceOnUse">
<stop stop-color="#00F780"/>
<stop offset="1" stop-color="#C5E3FF" stop-opacity="0.04"/>
</linearGradient>
<linearGradient id="paint7_linear_27_1805" x1="431.864" y1="0.264038" x2="431.864" y2="134.536" gradientUnits="userSpaceOnUse">
<stop stop-color="#00F780"/>
<stop offset="1" stop-color="#C5E3FF" stop-opacity="0.04"/>
</linearGradient>
<linearGradient id="paint8_linear_27_1805" x1="431.864" y1="0.264038" x2="431.864" y2="134.536" gradientUnits="userSpaceOnUse">
<stop stop-color="#00F780"/>
<stop offset="1" stop-color="#C5E3FF" stop-opacity="0.04"/>
</linearGradient>
<linearGradient id="paint9_linear_27_1805" x1="431.864" y1="0.264038" x2="431.864" y2="134.536" gradientUnits="userSpaceOnUse">
<stop stop-color="#00F780"/>
<stop offset="1" stop-color="#C5E3FF" stop-opacity="0.04"/>
</linearGradient>
</defs>
</svg>

<svg width="864" height="135" fill="none" xmlns="http://www.w3.org/2000/svg"><path d="M502.825 70.536L472.105 117h-28.544V27.4h29.696v46.592L504.105 27.4h28.416V117h-29.696V70.536z" fill="url(#paint0_linear_27_1805)"/><path d="M487.977 22.28c-10.155 0-17.365-1.877-21.632-5.632-4.181-3.84-6.272-9.301-6.272-16.384h20.096c0 2.816.555 4.907 1.664 6.272 1.195 1.28 3.243 1.92 6.144 1.92 2.987 0 5.077-.64 6.272-1.92 1.195-1.365 1.792-3.456 1.792-6.272h20.096c0 7.083-2.176 12.544-6.528 16.384-4.267 3.755-11.477 5.632-21.632 5.632z" fill="url(#paint1_linear_27_1805)"/><path fill-rule="evenodd" clip-rule="evenodd" d="M129.78 115.592c6.229 2.304 12.971 3.456 20.224 3.456 7.339 0 14.08-1.152 20.224-3.456 6.144-2.304 11.477-5.547 16-9.728a44.894 44.894 0 0010.496-14.976c2.56-5.717 3.84-11.947 3.84-18.688 0-6.827-1.28-13.056-3.84-18.688-2.475-5.717-5.973-10.667-10.496-14.848-4.523-4.267-9.856-7.552-16-9.856-6.144-2.304-12.885-3.456-20.224-3.456-7.253 0-13.995 1.152-20.224 3.456-6.144 2.304-11.477 5.59-16 9.856-4.523 4.181-8.064 9.13-10.624 14.848-2.475 5.632-3.712 11.861-3.712 18.688 0 6.741 1.237 12.97 3.712 18.688 2.56 5.717 6.101 10.709 10.624 14.976 4.523 4.181 9.856 7.424 16 9.728zm28.032-22.528c-2.389 1.024-4.992 1.536-7.808 1.536s-5.461-.512-7.936-1.536a20.28 20.28 0 01-6.4-4.352c-1.792-1.963-3.2-4.31-4.224-7.04-1.024-2.816-1.536-5.973-1.536-9.472 0-3.499.512-6.613 1.536-9.344 1.024-2.816 2.432-5.163 4.224-7.04 1.877-1.963 4.011-3.456 6.4-4.48 2.475-1.024 5.12-1.536 7.936-1.536s5.419.512 7.808 1.536a17.746 17.746 0 016.4 4.48c1.877 1.877 3.328 4.224 4.352 7.04 1.024 2.73 1.536 5.845 1.536 9.344 0 3.499-.512 6.656-1.536 9.472-1.024 2.73-2.475 5.077-4.352 7.04-1.792 1.877-3.925 3.328-6.4 4.352z" fill="url(#paint2_linear_27_1805)"/><path fill-rule="evenodd" clip-rule="evenodd" d="M286.316 109.96c-6.315 4.693-15.317 7.04-27.008 7.04h-47.872V27.4h45.44c11.093 0 19.669 2.048 25.728 6.144 6.144 4.096 9.216 9.856 9.216 17.28 0 7.253-2.816 13.013-8.448 17.28a26.777 26.777 0 01-3.042 1.951c2.508.905 4.76 2.046 6.754 3.425 5.803 4.01 8.704 9.856 8.704 17.536 0 7.936-3.157 14.251-9.472 18.944zm-22.912-26.368c-1.195-1.195-3.029-1.792-5.504-1.792h-16.768v14.08H257.9c2.475 0 4.309-.597 5.504-1.792 1.28-1.28 1.92-3.072 1.92-5.376 0-2.304-.64-4.01-1.92-5.12zm-3.84-33.28c-1.195-1.195-3.072-1.792-5.632-1.792h-12.8v13.312h12.8c2.56 0 4.437-.555 5.632-1.664 1.195-1.11 1.792-2.73 1.792-4.864 0-2.219-.597-3.883-1.792-4.992z" fill="url(#paint3_linear_27_1805)"/><path fill-rule="evenodd" clip-rule="evenodd" d="M380.417 62.344c-6.144-4.95-14.677-7.424-25.6-7.424h-18.56V27.4h-29.696V117h44.416c11.861 0 21.291-2.731 28.288-8.192 6.997-5.547 10.496-13.653 10.496-24.32 0-9.899-3.115-17.28-9.344-22.144zm-24.064 30.72c-1.963 1.877-4.437 2.816-7.424 2.816h-12.672V76.04h12.672c2.987 0 5.461.64 7.424 1.92 2.048 1.28 3.072 3.627 3.072 7.04 0 3.413-1.024 6.101-3.072 8.064z" fill="url(#paint4_linear_27_1805)"/><path fill-rule="evenodd" clip-rule="evenodd" d="M704.129 119.048c-7.253 0-13.995-1.152-20.224-3.456-6.144-2.304-11.477-5.547-16-9.728-4.523-4.267-8.064-9.259-10.624-14.976-2.475-5.717-3.712-11.947-3.712-18.688 0-6.827 1.237-13.056 3.712-18.688 2.56-5.717 6.101-10.667 10.624-14.848 4.523-4.267 9.856-7.552 16-9.856 6.229-2.304 12.971-3.456 20.224-3.456 7.339 0 14.08 1.152 20.224 3.456 6.144 2.304 11.477 5.59 16 9.856 4.523 4.181 8.021 9.13 10.496 14.848 2.56 5.632 3.84 11.861 3.84 18.688 0 6.741-1.28 12.97-3.84 18.688a44.894 44.894 0 01-10.496 14.976c-4.523 4.181-9.856 7.424-16 9.728-6.144 2.304-12.885 3.456-20.224 3.456zm0-24.448c2.816 0 5.419-.512 7.808-1.536 2.475-1.024 4.608-2.475 6.4-4.352 1.877-1.963 3.328-4.31 4.352-7.04 1.024-2.816 1.536-5.973 1.536-9.472 0-3.499-.512-6.613-1.536-9.344-1.024-2.816-2.475-5.163-4.352-7.04a17.746 17.746 0 00-6.4-4.48c-2.389-1.024-4.992-1.536-7.808-1.536s-5.461.512-7.936 1.536c-2.389 1.024-4.523 2.517-6.4 4.48-1.792 1.877-3.2 4.224-4.224 7.04-1.024 2.73-1.536 5.845-1.536 9.344 0 3.499.512 6.656 1.536 9.472 1.024 2.73 2.432 5.077 4.224 7.04a20.28 20.28 0 006.4 4.352c2.475 1.024 5.12 1.536 7.936 1.536z" fill="url(#paint5_linear_27_1805)"/><path fill-rule="evenodd" clip-rule="evenodd" d="M774.965 54.664l1.024-27.264h75.776v66.176h11.776v40.96h-27.648V117h-50.944v17.536h-27.648v-40.96h2.56c2.816 0 5.12-.939 6.912-2.816 1.877-1.963 3.371-4.65 4.48-8.064 1.109-3.499 1.92-7.595 2.432-12.288.597-4.779 1.024-10.027 1.28-15.744zm20.864 36.096a25.587 25.587 0 01-1.424 2.816h27.664V50.824h-20.608l-.256 6.4c-.171 4.693-.469 9.088-.896 13.184-.427 4.096-1.024 7.85-1.792 11.264-.683 3.413-1.579 6.443-2.688 9.088z" fill="url(#paint6_linear_27_1805)"/><path d="M88.506 27.4H58.298v31.744H30.394V27.4H.186V117h30.208V83.976h27.904V117h30.208V27.4z" fill="url(#paint7_linear_27_1805)"/><path d="M427.649 27.4h-29.696V117h29.696V27.4z" fill="url(#paint8_linear_27_1805)"/><path d="M655.035 27.4h-68.224V117h29.696V50.824h38.528V27.4z" fill="url(#paint9_linear_27_1805)"/><defs><linearGradient id="paint0_linear_27_1805" x1="431.864" y1=".264" x2="431.864" y2="134.536" gradientUnits="userSpaceOnUse"><stop stop-color="#00F780"/><stop offset="1" stop-color="#C5E3FF" stop-opacity=".04"/></linearGradient><linearGradient id="paint1_linear_27_1805" x1="431.864" y1=".264" x2="431.864" y2="134.536" gradientUnits="userSpaceOnUse"><stop stop-color="#00F780"/><stop offset="1" stop-color="#C5E3FF" stop-opacity=".04"/></linearGradient><linearGradient id="paint2_linear_27_1805" x1="431.864" y1=".264" x2="431.864" y2="134.536" gradientUnits="userSpaceOnUse"><stop stop-color="#00F780"/><stop offset="1" stop-color="#C5E3FF" stop-opacity=".04"/></linearGradient><linearGradient id="paint3_linear_27_1805" x1="431.864" y1=".264" x2="431.864" y2="134.536" gradientUnits="userSpaceOnUse"><stop stop-color="#00F780"/><stop offset="1" stop-color="#C5E3FF" stop-opacity=".04"/></linearGradient><linearGradient id="paint4_linear_27_1805" x1="431.864" y1=".264" x2="431.864" y2="134.536" gradientUnits="userSpaceOnUse"><stop stop-color="#00F780"/><stop offset="1" stop-color="#C5E3FF" stop-opacity=".04"/></linearGradient><linearGradient id="paint5_linear_27_1805" x1="431.864" y1=".264" x2="431.864" y2="134.536" gradientUnits="userSpaceOnUse"><stop stop-color="#00F780"/><stop offset="1" stop-color="#C5E3FF" stop-opacity=".04"/></linearGradient><linearGradient id="paint6_linear_27_1805" x1="431.864" y1=".264" x2="431.864" y2="134.536" gradientUnits="userSpaceOnUse"><stop stop-color="#00F780"/><stop offset="1" stop-color="#C5E3FF" stop-opacity=".04"/></linearGradient><linearGradient id="paint7_linear_27_1805" x1="431.864" y1=".264" x2="431.864" y2="134.536" gradientUnits="userSpaceOnUse"><stop stop-color="#00F780"/><stop offset="1" stop-color="#C5E3FF" stop-opacity=".04"/></linearGradient><linearGradient id="paint8_linear_27_1805" x1="431.864" y1=".264" x2="431.864" y2="134.536" gradientUnits="userSpaceOnUse"><stop stop-color="#00F780"/><stop offset="1" stop-color="#C5E3FF" stop-opacity=".04"/></linearGradient><linearGradient id="paint9_linear_27_1805" x1="431.864" y1=".264" x2="431.864" y2="134.536" gradientUnits="userSpaceOnUse"><stop stop-color="#00F780"/><stop offset="1" stop-color="#C5E3FF" stop-opacity=".04"/></linearGradient></defs></svg>
